SF_Symbols/film.stack.fill.svg

<?xml version="1.0" encoding="UTF-8"?>
<svg xmlns="http://www.w3.org/2000/svg" xmlns:xlink="http://www.w3.org/1999/xlink" width="24" height="24" viewBox="0 0 24 24" version="1.1">
<g id="surface1">
<path style=" stroke:none;fill-rule:nonzero;fill:rgb(100%,100%,100%);fill-opacity:1;" d="M 3.269531 5.167969 L 20.707031 5.167969 C 20.625 4.695312 20.457031 4.332031 20.207031 4.082031 C 19.964844 3.828125 19.582031 3.699219 19.0625 3.699219 L 4.917969 3.699219 C 4.394531 3.699219 4.011719 3.828125 3.761719 4.082031 C 3.511719 4.332031 3.347656 4.695312 3.269531 5.167969 Z M 5.417969 2.28125 L 18.5625 2.28125 C 18.527344 1.835938 18.382812 1.503906 18.125 1.28125 C 17.875 1.050781 17.511719 0.9375 17.03125 0.9375 L 6.9375 0.9375 C 6.457031 0.9375 6.089844 1.050781 5.832031 1.28125 C 5.582031 1.503906 5.445312 1.835938 5.417969 2.28125 Z M 2.917969 23.96875 L 21.0625 23.96875 C 21.644531 23.96875 22.109375 23.796875 22.449219 23.457031 C 22.789062 23.125 22.957031 22.675781 22.957031 22.113281 L 22.957031 8.707031 C 22.957031 8.144531 22.789062 7.695312 22.449219 7.355469 C 22.109375 7.015625 21.644531 6.84375 21.0625 6.84375 L 2.917969 6.84375 C 2.339844 6.84375 1.882812 7.015625 1.542969 7.355469 C 1.203125 7.695312 1.03125 8.144531 1.03125 8.707031 L 1.03125 22.113281 C 1.03125 22.675781 1.203125 23.125 1.542969 23.457031 C 1.882812 23.796875 2.339844 23.96875 2.917969 23.96875 Z M 2.925781 22.46875 C 2.601562 22.46875 2.4375 22.308594 2.4375 21.988281 L 2.4375 20.949219 C 2.4375 20.816406 2.480469 20.707031 2.5625 20.625 C 2.644531 20.542969 2.757812 20.5 2.894531 20.5 L 4.09375 20.5 C 4.226562 20.5 4.328125 20.542969 4.40625 20.625 C 4.488281 20.707031 4.53125 20.816406 4.53125 20.949219 L 4.53125 22.03125 C 4.53125 22.15625 4.488281 22.261719 4.40625 22.34375 C 4.328125 22.425781 4.226562 22.46875 4.09375 22.46875 Z M 2.894531 19.386719 C 2.757812 19.386719 2.644531 19.34375 2.5625 19.261719 C 2.480469 19.175781 2.4375 19.078125 2.4375 18.957031 L 2.4375 17.894531 C 2.4375 17.597656 2.589844 17.449219 2.894531 17.449219 L 4.09375 17.449219 C 4.226562 17.449219 4.328125 17.488281 4.40625 17.574219 C 4.488281 17.65625 4.53125 17.765625 4.53125 17.894531 L 4.53125 18.957031 C 4.53125 19.078125 4.488281 19.175781 4.40625 19.261719 C 4.328125 19.34375 4.226562 19.386719 4.09375 19.386719 Z M 2.894531 16.394531 C 2.757812 16.394531 2.644531 16.351562 2.5625 16.261719 C 2.480469 16.171875 2.4375 16.0625 2.4375 15.9375 L 2.4375 14.90625 C 2.4375 14.761719 2.476562 14.644531 2.550781 14.5625 C 2.636719 14.472656 2.75 14.425781 2.894531 14.425781 L 4.09375 14.425781 C 4.226562 14.425781 4.328125 14.472656 4.40625 14.5625 C 4.488281 14.644531 4.53125 14.761719 4.53125 14.90625 L 4.53125 15.9375 C 4.53125 16.0625 4.488281 16.171875 4.40625 16.261719 C 4.328125 16.351562 4.226562 16.394531 4.09375 16.394531 Z M 2.894531 13.386719 C 2.757812 13.386719 2.644531 13.34375 2.5625 13.261719 C 2.480469 13.175781 2.4375 13.078125 2.4375 12.96875 L 2.4375 11.886719 C 2.4375 11.761719 2.476562 11.65625 2.550781 11.574219 C 2.636719 11.484375 2.75 11.4375 2.894531 11.4375 L 4.09375 11.4375 C 4.226562 11.4375 4.328125 11.484375 4.40625 11.574219 C 4.488281 11.65625 4.53125 11.761719 4.53125 11.886719 L 4.53125 12.96875 C 4.53125 13.078125 4.488281 13.175781 4.40625 13.261719 C 4.328125 13.34375 4.226562 13.386719 4.09375 13.386719 Z M 2.894531 10.3125 C 2.757812 10.3125 2.644531 10.269531 2.5625 10.1875 C 2.480469 10.105469 2.4375 10.003906 2.4375 9.886719 L 2.4375 8.832031 C 2.4375 8.507812 2.601562 8.34375 2.925781 8.34375 L 4.09375 8.34375 C 4.226562 8.34375 4.328125 8.386719 4.40625 8.46875 C 4.488281 8.550781 4.53125 8.664062 4.53125 8.800781 L 4.53125 9.886719 C 4.53125 10.003906 4.488281 10.105469 4.40625 10.1875 C 4.328125 10.269531 4.226562 10.3125 4.09375 10.3125 Z M 19.886719 22.46875 C 19.761719 22.46875 19.65625 22.425781 19.574219 22.34375 C 19.496094 22.261719 19.457031 22.15625 19.457031 22.03125 L 19.457031 20.949219 C 19.457031 20.816406 19.496094 20.707031 19.574219 20.625 C 19.65625 20.542969 19.761719 20.5 19.886719 20.5 L 21.09375 20.5 C 21.234375 20.5 21.34375 20.542969 21.425781 20.625 C 21.511719 20.707031 21.550781 20.816406 21.550781 20.949219 L 21.550781 21.988281 C 21.550781 22.308594 21.390625 22.46875 21.0625 22.46875 Z M 19.886719 19.386719 C 19.761719 19.386719 19.65625 19.34375 19.574219 19.261719 C 19.496094 19.175781 19.457031 19.078125 19.457031 18.957031 L 19.457031 17.894531 C 19.457031 17.597656 19.601562 17.449219 19.886719 17.449219 L 21.09375 17.449219 C 21.398438 17.449219 21.550781 17.597656 21.550781 17.894531 L 21.550781 18.957031 C 21.550781 19.078125 21.511719 19.175781 21.425781 19.261719 C 21.34375 19.34375 21.234375 19.386719 21.09375 19.386719 Z M 19.886719 16.394531 C 19.761719 16.394531 19.65625 16.351562 19.574219 16.261719 C 19.496094 16.171875 19.457031 16.0625 19.457031 15.9375 L 19.457031 14.90625 C 19.457031 14.761719 19.496094 14.644531 19.574219 14.5625 C 19.65625 14.472656 19.761719 14.425781 19.886719 14.425781 L 21.09375 14.425781 C 21.234375 14.425781 21.34375 14.472656 21.425781 14.5625 C 21.511719 14.644531 21.550781 14.761719 21.550781 14.90625 L 21.550781 15.9375 C 21.550781 16.0625 21.511719 16.171875 21.425781 16.261719 C 21.34375 16.351562 21.234375 16.394531 21.09375 16.394531 Z M 19.886719 13.386719 C 19.761719 13.386719 19.65625 13.34375 19.574219 13.261719 C 19.496094 13.175781 19.457031 13.078125 19.457031 12.96875 L 19.457031 11.886719 C 19.457031 11.761719 19.496094 11.65625 19.574219 11.574219 C 19.65625 11.484375 19.761719 11.4375 19.886719 11.4375 L 21.09375 11.4375 C 21.234375 11.4375 21.34375 11.484375 21.425781 11.574219 C 21.511719 11.65625 21.550781 11.761719 21.550781 11.886719 L 21.550781 12.96875 C 21.550781 13.078125 21.511719 13.175781 21.425781 13.261719 C 21.34375 13.34375 21.234375 13.386719 21.09375 13.386719 Z M 19.886719 10.3125 C 19.761719 10.3125 19.65625 10.269531 19.574219 10.1875 C 19.496094 10.105469 19.457031 10.003906 19.457031 9.886719 L 19.457031 8.800781 C 19.457031 8.496094 19.601562 8.34375 19.886719 8.34375 L 21.0625 8.34375 C 21.390625 8.34375 21.550781 8.507812 21.550781 8.832031 L 21.550781 9.886719 C 21.550781 10.003906 21.511719 10.105469 21.425781 10.1875 C 21.34375 10.269531 21.234375 10.3125 21.09375 10.3125 Z M 5.605469 15.40625 C 5.605469 15.210938 5.671875 15.046875 5.800781 14.90625 C 5.941406 14.765625 6.109375 14.699219 6.300781 14.699219 L 17.6875 14.699219 C 17.890625 14.699219 18.054688 14.765625 18.1875 14.90625 C 18.328125 15.046875 18.394531 15.210938 18.394531 15.40625 C 18.394531 15.601562 18.328125 15.765625 18.1875 15.90625 C 18.054688 16.046875 17.890625 16.113281 17.6875 16.113281 L 6.300781 16.113281 C 6.109375 16.113281 5.941406 16.046875 5.800781 15.90625 C 5.671875 15.765625 5.605469 15.601562 5.605469 15.40625 Z M 5.605469 15.40625 "/>
</g>
</svg>

<svg xmlns="http://www.w3.org/2000/svg" width="24" height="24"><path style="stroke:none;fill-rule:nonzero;fill:#fff;fill-opacity:1" d="M3.27 5.168h17.437c-.082-.473-.25-.836-.5-1.086-.242-.254-.625-.383-1.145-.383H4.918c-.523 0-.906.13-1.156.383-.25.25-.414.613-.492 1.086Zm2.148-2.887h13.145c-.036-.445-.18-.777-.438-1-.25-.23-.613-.343-1.094-.343H6.938c-.481 0-.848.113-1.106.343-.25.223-.387.555-.414 1Zm-2.5 21.688h18.145c.582 0 1.046-.172 1.386-.512.34-.332.508-.781.508-1.344V8.707c0-.562-.168-1.012-.508-1.352-.34-.34-.804-.511-1.387-.511H2.919c-.578 0-1.035.172-1.375.511-.34.34-.512.79-.512 1.352v13.406c0 .563.172 1.012.512 1.344.34.34.797.512 1.375.512Zm.008-1.5c-.324 0-.489-.16-.489-.48v-1.04c0-.133.043-.242.126-.324a.459.459 0 0 1 .332-.125h1.199c.133 0 .234.043.312.125a.451.451 0 0 1 .125.324v1.082a.424.424 0 0 1-.437.438Zm-.031-3.082a.459.459 0 0 1-.333-.125.428.428 0 0 1-.124-.305v-1.062c0-.297.152-.446.457-.446h1.199c.133 0 .234.04.312.125.082.086.13.2.125.32v1.063a.428.428 0 0 1-.437.43Zm0-2.992a.425.425 0 0 1-.333-.133.475.475 0 0 1-.124-.325v-1.03a.501.501 0 0 1 .113-.345c.086-.09.199-.136.344-.136h1.199c.133 0 .234.047.312.136a.464.464 0 0 1 .125.344v1.031a.475.475 0 0 1-.125.325.38.38 0 0 1-.312.133Zm0-3.008a.459.459 0 0 1-.333-.125.418.418 0 0 1-.124-.293v-1.082c0-.125.039-.23.113-.313.086-.09.199-.136.344-.136h1.199c.133 0 .234.046.312.136a.424.424 0 0 1 .125.313v1.082c0 .11-.043.207-.125.293a.41.41 0 0 1-.312.125Zm0-3.075a.459.459 0 0 1-.333-.124.413.413 0 0 1-.124-.301V8.832c0-.324.164-.488.488-.488h1.168c.133 0 .234.043.312.125.086.09.13.21.125.332v1.086a.413.413 0 0 1-.125.3.41.41 0 0 1-.312.126ZM19.887 22.47a.41.41 0 0 1-.313-.125.433.433 0 0 1-.117-.313V20.95c0-.133.04-.242.117-.324a.424.424 0 0 1 .313-.125h1.207a.44.44 0 0 1 .332.121.43.43 0 0 1 .125.328v1.04c0 .32-.16.48-.488.48Zm0-3.082a.41.41 0 0 1-.313-.125.421.421 0 0 1-.117-.305v-1.062c0-.297.145-.446.43-.446h1.207c.304 0 .457.149.457.446v1.062c0 .121-.04.219-.125.305a.438.438 0 0 1-.332.125Zm0-2.992a.397.397 0 0 1-.313-.133.468.468 0 0 1-.117-.325v-1.03c0-.145.04-.262.117-.345a.414.414 0 0 1 .313-.136h1.207c.14 0 .25.047.332.136.086.083.125.2.125.344v1.031c0 .126-.04.235-.125.325a.412.412 0 0 1-.332.133Zm0-3.008a.41.41 0 0 1-.313-.125.427.427 0 0 1-.117-.293v-1.082a.442.442 0 0 1 .43-.45h1.207c.14 0 .25.047.332.137a.41.41 0 0 1 .125.313v1.082a.39.39 0 0 1-.125.293.438.438 0 0 1-.332.125Zm0-3.075a.424.424 0 0 1-.313-.124.406.406 0 0 1-.117-.301V8.8c0-.305.145-.457.43-.457h1.175c.329 0 .489.164.489.488v1.055c0 .117-.04.218-.125.3a.453.453 0 0 1-.332.126ZM5.605 15.407c0-.195.067-.36.196-.5a.69.69 0 0 1 .5-.207h11.386c.204 0 .368.067.5.207.141.14.208.305.208.5 0 .196-.067.36-.207.5a.642.642 0 0 1-.5.207H6.3a.67.67 0 0 1-.5-.207.696.696 0 0 1-.196-.5Zm0 0"/></svg>
